X:1
T:[ID 1-81b]
T:[ID 1-81b]
T:Bezeichnung standardisiert: Menuett Men:
T:Urheber unbekannt Datum in der hier transkribierten schriftlichen Quelle: vermutlich vor 1767
C:Urheber unbekannt
C:Datum in der hier transkribierten schriftlichen Quelle: vermutlich vor 1767
L:1/8
M:3/4
K:D
V:1 treble 
V:1
 D2 d2 c2 | d2 fedc | d2 AGFE | D4 f2 | e4 d2 | c2 cd B2 | ABcA^GB | A6 :: A2 a2 a2 | a2 bagf | %10
 ef g2 fg | e4 f2 | g2 agfg | e4 d2 | c2 cdBc | A4 a2 | fafdec | d6 :| %18

